icon-themes/HighContrast-SVG/scalable/status/user-trash-full.svg

<?xml version="1.0" encoding="UTF-8" standalone="no"?>
<!-- Generator: Adobe Illustrator 9.0, SVG Export Plug-In  -->
<svg
   xmlns:dc="http://purl.org/dc/elements/1.1/"
   xmlns:cc="http://creativecommons.org/ns#"
   xmlns:rdf="http://www.w3.org/1999/02/22-rdf-syntax-ns#"
   xmlns:svg="http://www.w3.org/2000/svg"
   xmlns="http://www.w3.org/2000/svg"
   xmlns:sodipodi="http://sodipodi.sourceforge.net/DTD/sodipodi-0.dtd"
   xmlns:inkscape="http://www.inkscape.org/namespaces/inkscape"
   width="48"
   height="48"
   viewBox="0 0 48 48"
   xml:space="preserve"
   id="svg2"
   sodipodi:version="0.32"
   inkscape:version="0.46"
   sodipodi:docname="user-trash-full.svg"
   sodipodi:docbase="/home/luca/Desktop/Black-and-White/scalable/filesystems"
   inkscape:output_extension="org.inkscape.output.svg.inkscape"
   version="1.0"><metadata
   id="metadata23"><rdf:RDF><cc:Work
       rdf:about=""><dc:format>image/svg+xml</dc:format><dc:type
         rdf:resource="http://purl.org/dc/dcmitype/StillImage" /><dc:title>User Trash Full</dc:title><dc:date>November 2008</dc:date><dc:creator><cc:Agent><dc:title>Luca Ferretti &lt;elle.uca@libero.it&gt;</dc:title></cc:Agent></dc:creator><dc:subject><rdf:Bag><rdf:li>trash</rdf:li><rdf:li>garbage</rdf:li><rdf:li>trashed</rdf:li><rdf:li>non empty</rdf:li></rdf:Bag></dc:subject><dc:coverage>Notify there are some stuff in trash</dc:coverage><dc:description>A trashcan with a paper inside it</dc:description><dc:contributor><cc:Agent><dc:title>Based on Jakub Steiner 's work </dc:title></cc:Agent></dc:contributor><cc:license
         rdf:resource="" /></cc:Work></rdf:RDF></metadata><defs
   id="defs21" /><sodipodi:namedview
   inkscape:window-height="949"
   inkscape:window-width="1280"
   inkscape:pageshadow="2"
   inkscape:pageopacity="0.0"
   borderopacity="1.0"
   bordercolor="#666666"
   pagecolor="#ffffff"
   id="base"
   inkscape:zoom="15.041667"
   inkscape:cx="10.138504"
   inkscape:cy="24"
   inkscape:window-x="0"
   inkscape:window-y="26"
   inkscape:current-layer="svg2"
   showgrid="true"
   showguides="true"
   inkscape:guide-bbox="true"
   inkscape:object-paths="false"
   inkscape:object-nodes="true"><inkscape:grid
     type="xygrid"
     id="grid2389"
     visible="true"
     enabled="true" /></sodipodi:namedview>
	<rect
   style="fill:none;fill-opacity:0.24590167;fill-rule:evenodd;stroke:none;stroke-width:1px;stroke-linecap:butt;stroke-linejoin:miter;stroke-opacity:1"
   id="rect2391"
   width="48"
   height="48"
   x="0"
   y="0" /><path
   style="fill-rule:nonzero;stroke:#ffffff;stroke-width:7.94417095;stroke-linejoin:round;stroke-miterlimit:4;stroke-dasharray:none"
   d="M 23.966759,6.2720857 C 16.216613,6.2720857 9.9380137,9.0865289 9.9380137,12.504067 L 9.9380137,36.828897 C 9.9380137,40.246436 16.216613,43.060879 23.966759,43.060879 C 31.716905,43.060879 37.995505,40.246436 37.995505,36.828897 L 37.995505,12.604583 C 37.995505,9.1870447 31.716905,6.3726016 23.966759,6.3726016 L 23.966759,6.2720857 z"
   id="path7" /><path
   style="fill-rule:nonzero;stroke:#ffffff;stroke-width:8;stroke-linejoin:round;stroke-miterlimit:4;stroke-dasharray:none"
   d="M 24,4.9 C 15.2,4.9 8,8 8,11.9 L 8,17.7 C 8,21.6 15.2,24.7 24,24.7 C 32.8,24.7 40,21.6 40,17.7 L 40,11.9 C 40,8 32.8,4.9 24,4.9 L 24,4.9 z"
   id="path9" /><path
   style="fill:#000000;fill-rule:nonzero;stroke:none;stroke-width:6.48140001;stroke-linejoin:round;stroke-miterlimit:4"
   d="M 24,6.4 C 16.246912,6.4 9.965928,9.2 9.965928,12.6 L 9.965928,36.8 C 9.965928,40.2 16.246912,43 24,43 C 31.753088,43 38.034072,40.2 38.034072,36.8 L 38.034072,12.7 C 38.034072,9.3 31.753088,6.5 24,6.5 L 24,6.4 z"
   id="path11" /><path
   style="fill:#000000;fill-rule:nonzero;stroke:none;stroke-width:6.48140001;stroke-linejoin:round;stroke-miterlimit:4"
   d="M 24,5 C 15.2,5 8,8.1 8,12 L 8,17.8 C 8,21.7 15.2,24.8 24,24.8 C 32.8,24.8 40,21.7 40,17.8 L 40,12 C 40,8.1 32.8,5 24,5 z"
   id="path13" /><path
   style="fill:#ffffff;fill-rule:nonzero;stroke:none;stroke-width:6.48140001;stroke-linejoin:round;stroke-miterlimit:4"
   d="M 35.8,12.1 C 35.8,14.4 30.6,16.2 24.2,16.2 C 17.8,16.2 12.6,14.3 12.6,12.1 C 12.6,9.8 17.8,8 24.2,8 C 30.6,8 35.8,9.9 35.8,12.1 z"
   id="path15" />
	
<path
   style="fill:#000000;fill-opacity:1;fill-rule:nonzero;stroke:#ffffff;stroke-width:3.04136515;stroke-linecap:round;stroke-linejoin:round;stroke-miterlimit:4;stroke-dasharray:none;stroke-dashoffset:0;stroke-opacity:1"
   d="M 14.761776,11.774827 L 28.502851,2.3524564 L 34.227075,12.682921 C 29.653959,14.783468 21.250923,16.115826 14.761776,11.774827 z"
   id="rect4045"
   sodipodi:nodetypes="cccc" /></svg>

<?xml version="1.0" encoding="UTF-8" standalone="no"?>
<!-- Generator: Adobe Illustrator 9.0, SVG Export Plug-In  -->
<svg
   xmlns:dc="http://purl.org/dc/elements/1.1/"
   xmlns:cc="http://web.resource.org/cc/"
   xmlns:rdf="http://www.w3.org/1999/02/22-rdf-syntax-ns#"
   xmlns:svg="http://www.w3.org/2000/svg"
   xmlns="http://www.w3.org/2000/svg"
   xmlns:sodipodi="http://inkscape.sourceforge.net/DTD/sodipodi-0.dtd"
   xmlns:inkscape="http://www.inkscape.org/namespaces/inkscape"
   width="48pt"
   height="48pt"
   viewBox="0 0 48 48"
   xml:space="preserve"
   id="svg2"
   sodipodi:version="0.32"
   inkscape:version="0.42.2"
   sodipodi:docname="gnome-fs-trash-full.svg"
   sodipodi:docbase="/home/luca/Desktop/Black-and-White/scalable/filesystems"><metadata
   id="metadata23"><rdf:RDF><cc:Work
       rdf:about=""><dc:format>image/svg+xml</dc:format><dc:type
         rdf:resource="http://purl.org/dc/dcmitype/StillImage" /></cc:Work></rdf:RDF></metadata><defs
   id="defs21" /><sodipodi:namedview
   inkscape:window-height="561"
   inkscape:window-width="922"
   inkscape:pageshadow="2"
   inkscape:pageopacity="0.0"
   borderopacity="1.0"
   bordercolor="#666666"
   pagecolor="#ffffff"
   id="base"
   inkscape:zoom="6.1833333"
   inkscape:cx="30.000000"
   inkscape:cy="29.486932"
   inkscape:window-x="387"
   inkscape:window-y="278"
   inkscape:current-layer="svg2" />
	<g
   id="Layer_x0020_3"
   style="fill-rule:nonzero;clip-rule:nonzero;fill:none;stroke:#FFFFFF;stroke-width:6.4814;stroke-linejoin:round;stroke-miterlimit:4;">
		<g
   id="g5">
			<path
   d="M24,6.3c-7.9,0-14.3,2.8-14.3,6.2v24.2c0,3.4,6.4,6.2,14.3,6.2c7.9,0,14.3-2.8,14.3-6.2V12.6c0-3.4-6.4-6.2-14.3-6.2z"
   id="path7" />
			<path
   d="M24,4.9c-8.8,0-16,3.1-16,7v5.8c0,3.9,7.2,7,16,7c8.8,0,16-3.1,16-7v-5.8c0-3.9-7.2-7-16-7z"
   id="path9" />
			<path
   style="fill:#000000;stroke:none;"
   d="M24,6.4c-7.9,0-14.3,2.8-14.3,6.2v24.2c0,3.4,6.4,6.2,14.3,6.2c7.9,0,14.3-2.8,14.3-6.2V12.7c0-3.4-6.4-6.2-14.3-6.2z"
   id="path11" />
			<path
   style="fill:#000000;stroke:none;"
   d="M24,5C15.2,5,8,8.1,8,12v5.8c0,3.9,7.2,7,16,7c8.8,0,16-3.1,16-7V12c0-3.9-7.2-7-16-7z"
   id="path13" />
			<path
   style="fill:#FFFFFF;stroke:none;"
   d="M35.8,12.1c0,2.3-5.2,4.1-11.6,4.1c-6.4,0-11.6-1.9-11.6-4.1c0-2.3,5.2-4.1,11.6-4.1c6.4,0,11.6,1.9,11.6,4.1z"
   id="path15" />
		</g>
	</g>
	<g
   id="crop_x0020_marks"
   style="fill-rule:nonzero;clip-rule:nonzero;stroke:#000000;stroke-miterlimit:4;">
		<path
   style="fill:none;stroke:none;"
   d="M48,48H0V0h48v48z"
   id="path18" />
	</g>
<path
   style="fill:#000000;fill-opacity:1.0000000;fill-rule:nonzero;stroke:#ffffff;stroke-width:3.1528344;stroke-linecap:round;stroke-linejoin:round;stroke-miterlimit:4.0000000;stroke-dashoffset:0.0000000;stroke-opacity:1.0000000"
   d="M 14.741093,11.480142 L 28.511369,2.3317738 L 34.247758,12.361829 C 29.664923,14.401292 21.244030,15.694905 14.741093,11.480142 z "
   id="rect4045"
   sodipodi:nodetypes="cccc" /></svg>
